assets/images/members/sixscape/sixscape.svg

<svg xmlns="http://www.w3.org/2000/svg" fill="none" viewBox="0 0 2502 520"><g filter="url(#a)"><path fill="#697176" d="M699.049 199.684v-1.327a22.91 22.91 0 0 0-22.927-22.773H575.145a22.79 22.79 0 0 0-21.086 14.048 22.8 22.8 0 0 0-1.744 8.725v1.327a22.77 22.77 0 0 0 22.83 22.85h89.456a78.13 78.13 0 0 1 58.105 25.734 21.3 21.3 0 0 1 2.962 3.405 78.6 78.6 0 0 1 17.167 40.289 78.6 78.6 0 0 1-7.055 43.223 78.6 78.6 0 0 1-29.087 32.74 78.6 78.6 0 0 1-42.092 12.095h-77.935A78.649 78.649 0 0 1 508 301.353h44.315a34.31 34.31 0 0 0 34.293 34.294h77.936a34.3 34.3 0 0 0 24.786-9.755 34.312 34.312 0 0 0-24.786-58.852h-89.399a65.97 65.97 0 0 1-46.43-18.772 58.8 58.8 0 0 1-8.732-10.347 66.4 66.4 0 0 1-11.906-38.237v-1.327a67.21 67.21 0 0 1 41.419-62.175 67.2 67.2 0 0 1 25.726-5.143h100.977a67.315 67.315 0 0 1 67.318 67.318v1.327zM779.062 380.02V131.135h44.449V380.02zM1107.96 131.231l-96.42 124.788 95.98 124.231h-56.05l-67.877-87.975-67.76 87.975h-56.144l95.823-124.212-96.419-125.019h56.047l68.453 88.725 68.477-88.725h55.89zM859.093 380.25h.596l-.596.75zm248.867.596-.44-.596h.44zM1334.71 199.684v-1.328a22.92 22.92 0 0 0-6.77-16.117 22.9 22.9 0 0 0-16.16-6.655H1210.8a22.8 22.8 0 0 0-16.1 6.675 22.76 22.76 0 0 0-6.67 16.097v1.328a22.77 22.77 0 0 0 6.64 16.152 22.8 22.8 0 0 0 16.13 6.697h89.46a78.06 78.06 0 0 1 31.78 6.693 78.1 78.1 0 0 1 26.32 19.042 20 20 0 0 1 2.96 3.404 78.56 78.56 0 0 1 17.17 40.29 78.6 78.6 0 0 1-7.05 43.223 78.63 78.63 0 0 1-29.09 32.739 78.6 78.6 0 0 1-42.09 12.095h-77.92a78.594 78.594 0 0 1-55.63-23.029 78.7 78.7 0 0 1-17.06-25.527 78.6 78.6 0 0 1-5.97-30.11h44.35c0 9.097 3.62 17.82 10.06 24.251a34.3 34.3 0 0 0 24.25 10.043h77.92c4.57.108 9.12-.699 13.38-2.374a34.3 34.3 0 0 0 11.4-7.381 34.1 34.1 0 0 0 7.65-11.23 34.2 34.2 0 0 0 2.69-13.318c0-4.575-.91-9.103-2.69-13.319a34.1 34.1 0 0 0-7.65-11.23 34.3 34.3 0 0 0-11.4-7.381 34.4 34.4 0 0 0-13.38-2.374h-89.46a66 66 0 0 1-46.43-18.772 58.7 58.7 0 0 1-8.73-10.348 66.34 66.34 0 0 1-11.96-38.16v-1.327a67 67 0 0 1 5.07-25.735 67.192 67.192 0 0 1 62.05-41.583h100.98c17.85 0 34.98 7.093 47.6 19.717a67.34 67.34 0 0 1 19.72 47.601v1.327zM1459.07 255.577a80.21 80.21 0 0 0 23.49 56.656 80.22 80.22 0 0 0 56.66 23.491h124.5v44.353h-124.5a124.489 124.489 0 0 1-124.5-124.5 124.49 124.49 0 0 1 124.5-124.5h124.5v44.372h-124.5a80.21 80.21 0 0 0-80.15 80.128M1953.01 380.077h-49.81l-22.78-44.507-54.25-106.613-54.28 106.613-22.77 44.507h-49.82l22.62-44.507 104.25-204.493 104.22 204.493zM2212.67 198.203a67.2 67.2 0 0 1-10.65 36.403 67.2 67.2 0 0 1-28.68 24.818 62.3 62.3 0 0 1-19.37 5.482c-.64.112-1.28.157-1.93.134v.443h-119.25V380.02h-44.35V131h157.03a66.8 66.8 0 0 1 25.7 5.054 66.8 66.8 0 0 1 21.78 14.546 67.7 67.7 0 0 1 19.72 47.603m-44.36 0a23.97 23.97 0 0 0-6.8-16.406 22.67 22.67 0 0 0-15.97-6.501h-112.67v45.834h112.67c3.23.063 6.42-.65 9.31-2.078a22.644 22.644 0 0 0 13.46-20.849M2292.51 198.357v23.08h160.1v44.353h-160.14v47.027c0 6.052 2.39 11.858 6.66 16.15a22.9 22.9 0 0 0 16.11 6.757h181.74v44.353h-181.7a67.18 67.18 0 0 1-47.51-19.751 67.225 67.225 0 0 1-19.62-47.567V198.357a67.2 67.2 0 0 1 5.08-25.735 67.3 67.3 0 0 1 14.54-21.832 67.184 67.184 0 0 1 47.51-19.751h181.74v44.41h-181.74a22.92 22.92 0 0 0-16.11 6.757 22.9 22.9 0 0 0-6.66 16.151"/><path fill="#6a7277" d="M93.88 271.245v49.017c1.9 5.67 9.309 23.081 49.391 58.958 12.857 11.512 9.929 10.401 23.968 20.955l.058 79.818c-27.943-18.6-48.285-35.226-72.932-57.771-18.538-16.952-34.284-33.559-45.55-48.001-14.622-18.753-21.584-33.578-21.913-46.623v-.651l-.02-24.02L93.9 271.245z"/><path fill="#8ec856" d="M304.377 369.126c-26.916 24.096-50.147 43.347-79.952 61.678a8.13 8.13 0 0 1-8.474 0 602 602 0 0 1-37.096-24.844l.659 83.074c12.158 7.796 24.298 14.979 36.204 21.415l1.047.574a8.15 8.15 0 0 0 7.738 0l1.047-.574c47.606-25.725 89.977-57.426 123.253-87.844.524-.459 7.33-6.857 7.834-7.336l-49.351-48.768c-.951.862-1.92 1.724-2.89 2.605z"/><path fill="#6a7277" d="M424.256 173.001c-106.693-9.883-276.389 7.164-416.01 125.521A263 263 0 0 0 4 302.161c142.975-96.041 314.707-95.371 351.435-94.241v103.914c-1.726 5.172-5.72 16.837-38.085 47.255l47.975 47.886c14.854-14.136 27.517-27.831 36.999-40.014 14.622-18.752 21.583-33.559 21.913-46.603V173.001"/><path fill="#f26724" d="M449 168.615c-8.3-1.743-16.677-3.065-25.074-4.118a326 326 0 0 0-6.03-.747c-5.236-.46-10.414-1.054-15.669-1.303-2.618-.153-5.216-.364-7.834-.479l-7.854-.268c-2.598-.134-5.216-.134-7.834-.172l-6.612-.058h-1.222c-5.236.115-10.452.096-15.669.326-5.216.23-10.413.364-15.649.766l-7.795.517c-2.599.192-5.178.46-7.776.671-41.498 3.773-82.434 11.78-122.168 23.177-39.714 11.454-78.323 26.184-115.109 44.19a1014 1014 0 0 0-8.047 4.003c-15.61 7.834-30.95 16.166-45.842 25.131-2.017 1.206-3.995 2.452-5.973 3.677V74.24C43.501 60.985 60.856 49.416 78.658 39.61 127.796 12.562 180.522-1.133 233.52.073c40.994.939 80.766 10.765 118.211 29.23 6.884 3.41 13.71 7.088 20.381 11.053 18.092 10.726 35.409 23.502 51.814 38.213v67.501c-19.701-4.482-58.911-7.068-68.491-8.045l.097-29.843c-38.997-34.765-76.073-42.638-126.201-43.787-52.668-1.207-86.099 11.55-134.248 44.438l-.078 78.496c38.279-13.906 61.336-16.703 101.128-24.096 42.118-7.777 84.799-11.895 127.364-11.646 2.657.019 5.294 0 7.97.076l7.97.249c5.294.115 10.627.479 15.921.747 5.293.287 10.587.805 15.862 1.207l.873.096 7.058.747c2.618.268 5.275.555 7.893.919l7.873 1.054c2.617.364 5.216.823 7.853 1.245 5.217.766 10.414 1.877 15.61 2.854 1.862.402 3.704.804 5.546 1.226 8.455 1.896 16.852 4.08 25.074 6.646z"/></g><defs><filter id="a" width="2501.02" height="520" x="0" y="0" color-interpolation-filters="sRGB" filterUnits="userSpaceOnUse"><feFlood flood-opacity="0" result="BackgroundImageFix"/><feColorMatrix in="SourceAlpha" result="hardAlpha" values="0 0 0 0 0 0 0 0 0 0 0 0 0 0 0 0 0 0 127 0"/><feOffset dy="4"/><feGaussianBlur stdDeviation="2"/><feComposite in2="hardAlpha" operator="out"/><feColorMatrix values="0 0 0 0 0 0 0 0 0 0 0 0 0 0 0 0 0 0 0.25 0"/><feBlend in2="BackgroundImageFix" result="effect1_dropShadow_234_119"/><feBlend in="SourceGraphic" in2="effect1_dropShadow_234_119" result="shape"/></filter></defs></svg>

<svg viewBox="0 0 2502 520" fill="none" xmlns="http://www.w3.org/2000/svg">
<g filter="url(#filter0_d_234_119)">
<path d="M699.049 199.684V198.357C699.013 192.301 696.581 186.506 692.285 182.239C687.989 177.971 682.178 175.579 676.122 175.584H575.145C572.15 175.579 569.184 176.164 566.416 177.306C563.647 178.448 561.131 180.124 559.011 182.239C556.89 184.354 555.208 186.866 554.059 189.632C552.91 192.397 552.317 195.362 552.315 198.357V199.684C552.304 202.686 552.888 205.66 554.031 208.436C555.175 211.211 556.856 213.733 558.978 215.857C561.099 217.98 563.62 219.664 566.395 220.809C569.169 221.955 572.143 222.541 575.145 222.534H664.601C675.549 222.513 686.379 224.793 696.389 229.226C706.398 233.66 715.365 240.147 722.706 248.268C723.811 249.295 724.804 250.436 725.668 251.673C735.092 263.205 741.045 277.177 742.835 291.962C744.626 306.747 742.179 321.737 735.78 335.185C729.381 348.633 719.294 359.987 706.693 367.925C694.091 375.862 679.494 380.057 664.601 380.02H586.666C576.335 380.022 566.104 377.989 556.559 374.037C547.014 370.084 538.34 364.29 531.035 356.984C523.73 349.679 517.935 341.006 513.983 331.461C510.031 321.915 507.997 311.685 508 301.353H552.315C552.32 310.447 555.934 319.167 562.365 325.597C568.795 332.027 577.515 335.642 586.608 335.647H664.544C669.117 335.756 673.665 334.948 677.922 333.273C682.179 331.598 686.057 329.088 689.33 325.892C692.603 322.696 695.203 318.878 696.979 314.662C698.754 310.447 699.669 305.918 699.669 301.344C699.669 296.769 698.754 292.241 696.979 288.025C695.203 283.81 692.603 279.991 689.33 276.795C686.057 273.599 682.179 271.09 677.922 269.415C673.665 267.739 669.117 266.932 664.544 267.04H575.145C557.802 267.129 541.122 260.385 528.715 248.268C525.415 245.167 522.485 241.694 519.983 237.921C512.173 226.704 508.015 213.351 508.077 199.684V198.357C508.062 189.527 509.787 180.78 513.154 172.617C516.521 164.454 521.463 157.035 527.699 150.783C533.935 144.531 541.341 139.57 549.496 136.182C557.65 132.794 566.392 131.046 575.222 131.039H676.199C694.053 131.039 711.176 138.131 723.8 150.756C736.425 163.38 743.517 180.503 743.517 198.357V199.684H699.049Z" fill="#697176"/>
<path d="M779.062 380.02V131.135H823.511V380.02H779.062Z" fill="#697176"/>
<path d="M1107.96 131.231L1011.54 256.019L1107.52 380.25H1051.47L983.593 292.275L915.833 380.25H859.689L955.512 256.038L859.093 131.019H915.14L983.593 219.744L1052.07 131.019H1107.96V131.231ZM859.093 380.25H859.689L859.093 381V380.25ZM1107.96 380.846L1107.52 380.25H1107.96V380.846Z" fill="#697176"/>
<path d="M1334.71 199.684V198.356C1334.67 192.301 1332.24 186.506 1327.94 182.239C1323.65 177.971 1317.83 175.578 1311.78 175.584H1210.8C1204.76 175.589 1198.97 177.99 1194.7 182.259C1190.43 186.529 1188.03 192.318 1188.03 198.356V199.684C1188.02 202.681 1188.6 205.65 1189.74 208.422C1190.88 211.194 1192.56 213.713 1194.67 215.836C1196.79 217.959 1199.3 219.643 1202.07 220.792C1204.84 221.942 1207.8 222.533 1210.8 222.533H1300.26C1311.21 222.512 1322.04 224.793 1332.04 229.226C1342.05 233.659 1351.02 240.147 1358.36 248.268C1359.47 249.29 1360.47 250.432 1361.32 251.672C1370.75 263.205 1376.7 277.177 1378.49 291.962C1380.28 306.747 1377.84 321.736 1371.44 335.185C1365.04 348.633 1354.95 359.987 1342.35 367.924C1329.75 375.862 1315.15 380.056 1300.26 380.019H1222.34C1212.01 380.024 1201.78 377.993 1192.23 374.041C1182.69 370.09 1174.01 364.296 1166.71 356.99C1159.4 349.684 1153.61 341.01 1149.65 331.463C1145.7 321.917 1143.67 311.685 1143.68 301.353H1188.03C1188.03 310.45 1191.65 319.173 1198.09 325.604C1204.52 332.034 1213.24 335.647 1222.34 335.647H1300.26C1304.83 335.755 1309.38 334.948 1313.64 333.273C1317.89 331.598 1321.77 329.088 1325.04 325.892C1328.32 322.696 1330.92 318.878 1332.69 314.662C1334.47 310.446 1335.38 305.918 1335.38 301.344C1335.38 296.769 1334.47 292.241 1332.69 288.025C1330.92 283.809 1328.32 279.991 1325.04 276.795C1321.77 273.599 1317.89 271.09 1313.64 269.414C1309.38 267.739 1304.83 266.932 1300.26 267.04H1210.8C1193.46 267.125 1176.78 260.381 1164.37 248.268C1161.07 245.166 1158.14 241.694 1155.64 237.92C1147.82 226.733 1143.65 213.408 1143.68 199.76V198.433C1143.66 189.605 1145.38 180.86 1148.75 172.698C1152.12 164.537 1157.06 157.118 1163.29 150.866C1169.52 144.615 1176.93 139.653 1185.08 136.264C1193.23 132.875 1201.97 131.125 1210.8 131.115H1311.78C1329.63 131.115 1346.76 138.208 1359.38 150.832C1372 163.457 1379.1 180.579 1379.1 198.433V199.76L1334.71 199.684Z" fill="#697176"/>
<path d="M1459.07 255.577C1459.09 276.829 1467.53 297.205 1482.56 312.233C1497.59 327.26 1517.97 335.709 1539.22 335.724H1663.72V380.077H1539.22C1506.2 380.077 1474.53 366.96 1451.18 343.612C1427.83 320.264 1414.72 288.596 1414.72 255.577C1414.72 222.558 1427.83 190.89 1451.18 167.542C1474.53 144.194 1506.2 131.077 1539.22 131.077H1663.72V175.449H1539.22C1517.97 175.464 1497.6 183.911 1482.57 198.934C1467.54 213.957 1459.09 234.329 1459.07 255.577Z" fill="#697176"/>
<path d="M1953.01 380.077H1903.2L1880.42 335.57L1826.17 228.957L1771.89 335.57L1749.12 380.077H1699.3L1721.92 335.57L1826.17 131.077L1930.39 335.57L1953.01 380.077Z" fill="#697176"/>
<path d="M2212.67 198.203C2212.69 211.109 2208.99 223.748 2202.02 234.606C2195.04 245.464 2185.08 254.081 2173.34 259.424C2167.22 262.29 2160.68 264.142 2153.97 264.906C2153.33 265.018 2152.69 265.063 2152.04 265.04V265.483H2032.79V380.02H1988.44V131H2145.47C2154.28 130.972 2163.02 132.69 2171.17 136.054C2179.32 139.417 2186.72 144.361 2192.95 150.6C2205.54 163.25 2212.63 180.357 2212.67 198.203ZM2168.31 198.203C2168.23 192.064 2165.79 186.191 2161.51 181.797C2157.25 177.611 2151.51 175.275 2145.54 175.296H2032.87V221.13H2145.54C2148.77 221.193 2151.96 220.48 2154.85 219.052C2158.88 217.264 2162.3 214.339 2164.69 210.635C2167.08 206.932 2168.34 202.611 2168.31 198.203Z" fill="#697176"/>
<path d="M2292.51 198.357V221.437H2452.61V265.79H2292.47V312.817C2292.47 318.869 2294.86 324.675 2299.13 328.967C2303.4 333.259 2309.19 335.689 2315.24 335.724H2496.98V380.077H2315.28C2306.45 380.067 2297.71 378.318 2289.56 374.929C2281.41 371.54 2274 366.578 2267.77 360.326C2261.54 354.074 2256.6 346.656 2253.23 338.494C2249.86 330.332 2248.14 321.587 2248.15 312.759V198.357C2248.14 189.528 2249.86 180.783 2253.23 172.622C2256.6 164.46 2261.54 157.041 2267.77 150.79C2274 144.538 2281.41 139.576 2289.56 136.187C2297.71 132.798 2306.45 131.049 2315.28 131.039H2497.02V175.449H2315.28C2309.23 175.485 2303.44 177.914 2299.17 182.206C2294.9 186.498 2292.51 192.305 2292.51 198.357Z" fill="#697176"/>
<path d="M93.8805 271.245V320.262C95.7809 325.932 103.189 343.343 143.271 379.22C156.128 390.732 153.2 389.621 167.239 400.175L167.297 479.993C139.354 461.393 119.012 444.767 94.3653 422.222C75.8269 405.27 60.0809 388.663 48.8143 374.221C34.193 355.468 27.2314 340.643 26.9017 327.598V326.947L26.8823 302.927L93.8999 271.245H93.8805Z" fill="#6A7277"/>
<path d="M304.377 369.126C277.461 393.222 254.23 412.473 224.425 430.804C221.826 432.393 218.549 432.393 215.951 430.804C203.618 423.199 191.149 414.867 178.855 405.96L179.514 489.034C191.672 496.83 203.812 504.013 215.718 510.449C216.067 510.64 216.416 510.832 216.765 511.023C219.17 512.326 222.098 512.326 224.503 511.023C224.852 510.832 225.201 510.64 225.55 510.449C273.156 484.724 315.527 453.023 348.803 422.605C349.327 422.146 356.133 415.748 356.637 415.269L307.286 366.501C306.335 367.363 305.366 368.225 304.396 369.106L304.377 369.126Z" fill="#8EC856"/>
<path d="M424.256 173.001C317.563 163.118 147.867 180.165 8.24678 298.522C6.81179 299.729 5.3962 300.935 4 302.161H4C146.975 206.12 318.707 206.79 355.435 207.92V212.039V311.834C353.709 317.006 349.715 328.671 317.35 359.089L365.325 406.975C380.179 392.839 392.842 379.144 402.324 366.961C416.946 348.209 423.907 333.402 424.237 320.358V320.032V223.129V173.001" fill="#6A7277"/>
<path d="M449 168.615C440.7 166.872 432.323 165.55 423.926 164.497C421.91 164.229 419.912 163.98 417.896 163.75C412.66 163.29 407.482 162.696 402.227 162.447C399.609 162.294 397.011 162.083 394.393 161.968L386.539 161.7C383.941 161.566 381.323 161.566 378.705 161.528L372.093 161.47H370.871C365.635 161.585 360.419 161.566 355.202 161.796C349.986 162.026 344.789 162.16 339.553 162.562L331.758 163.079C329.159 163.271 326.58 163.539 323.982 163.75C282.484 167.523 241.548 175.53 201.814 186.927C162.1 198.381 123.491 213.111 86.7054 231.117C84.01 232.438 81.3339 233.779 78.6579 235.12C63.0476 242.954 47.7088 251.286 32.816 260.251C30.7992 261.457 28.8213 262.703 26.8433 263.928V74.2401C43.5008 60.9851 60.8563 49.4157 78.6579 39.6086C127.796 12.5622 180.522 -1.13335 233.52 0.0733919C274.514 1.01197 314.286 10.8383 351.731 29.3034C358.615 32.7129 365.441 36.3906 372.112 40.3556C390.204 51.0822 407.521 63.8583 423.926 78.5691V146.07C404.225 141.588 365.015 139.002 355.435 138.025L355.532 108.182C316.535 73.4165 279.459 65.5439 229.331 64.3946C176.663 63.1879 143.232 75.9449 95.0826 108.833L95.005 187.329C133.284 173.423 156.341 170.626 196.133 163.233C238.251 155.456 280.932 151.338 323.497 151.587C326.154 151.606 328.791 151.587 331.467 151.663L339.437 151.912C344.731 152.027 350.064 152.391 355.358 152.659C360.651 152.946 365.945 153.464 371.22 153.866L372.093 153.962L379.151 154.709C381.769 154.977 384.426 155.264 387.044 155.628L394.917 156.682C397.534 157.046 400.133 157.505 402.77 157.927C407.987 158.693 413.184 159.804 418.38 160.781C420.242 161.183 422.084 161.585 423.926 162.007C432.381 163.903 440.778 166.087 449 168.653V168.615Z" fill="#F26724"/>
</g>
<defs>
<filter id="filter0_d_234_119" x="0" y="0" width="2501.02" height="520" filterUnits="userSpaceOnUse" color-interpolation-filters="sRGB">
<feFlood flood-opacity="0" result="BackgroundImageFix"/>
<feColorMatrix in="SourceAlpha" type="matrix" values="0 0 0 0 0 0 0 0 0 0 0 0 0 0 0 0 0 0 127 0" result="hardAlpha"/>
<feOffset dy="4"/>
<feGaussianBlur stdDeviation="2"/>
<feComposite in2="hardAlpha" operator="out"/>
<feColorMatrix type="matrix" values="0 0 0 0 0 0 0 0 0 0 0 0 0 0 0 0 0 0 0.25 0"/>
<feBlend mode="normal" in2="BackgroundImageFix" result="effect1_dropShadow_234_119"/>
<feBlend mode="normal" in="SourceGraphic" in2="effect1_dropShadow_234_119" result="shape"/>
</filter>
</defs>
</svg>
